common/loginpage/providers/owncloud/assets/listicon_dark.svg

<svg width="36" height="36" viewBox="0 0 36 36" fill="none" xmlns="http://www.w3.org/2000/svg">
<path fill-rule="evenodd" clip-rule="evenodd" d="M24.1898 19.6084C24.198 19.5008 24.2034 19.3929 24.2062 19.284C24.2076 19.2304 24.2102 19.1767 24.2102 19.1227C24.2102 18.2226 24.0199 17.3671 23.68 16.5926C23.6453 16.5136 23.6096 16.4352 23.5719 16.358C23.5349 16.2822 23.4972 16.2068 23.4572 16.1328C22.9074 15.1145 22.0853 14.2674 21.0913 13.6882C21.0176 13.6453 20.9432 13.6038 20.8677 13.5639C20.7925 13.5241 20.7166 13.4853 20.6394 13.4485C19.8763 13.0848 19.0286 12.8741 18.1348 12.8533C18.0867 12.8523 18.039 12.8496 17.9907 12.8496C17.9309 12.8496 17.872 12.8526 17.8127 12.8542C17.7055 12.8573 17.5993 12.863 17.4937 12.8715C16.5134 12.9501 15.5965 13.2576 14.796 13.7429C14.7217 13.788 14.6483 13.8352 14.5758 13.8835C14.5027 13.9321 14.4309 13.9826 14.36 14.0342C13.9452 14.3362 13.5687 14.6878 13.2392 15.0812C13.1841 15.1471 13.1305 15.2143 13.0781 15.2824C13.0263 15.3496 12.976 15.4179 12.9268 15.4872C12.2004 16.5137 11.7712 17.7682 11.7712 19.1227C11.7712 19.48 11.8026 19.8302 11.8599 20.1715C11.8762 20.2695 11.8949 20.3672 11.9158 20.4638C11.9387 20.5691 11.9642 20.6733 11.9924 20.7768C12.1475 21.3489 12.3802 21.8888 12.6799 22.3834C12.7252 22.4585 12.7724 22.5322 12.8208 22.6049C12.8694 22.6781 12.92 22.7498 12.9717 22.8209C13.0879 22.9807 13.2115 23.1349 13.3418 23.2829C13.413 23.3637 13.4858 23.4426 13.5609 23.5197C13.6296 23.5901 13.7002 23.6589 13.7722 23.7263C14.8818 24.7608 16.364 25.395 17.9907 25.395C19.5579 25.395 20.9904 24.8061 22.0853 23.8378C22.1485 23.7821 22.2103 23.725 22.271 23.6667C22.3333 23.6071 22.3944 23.5463 22.4542 23.4841C23.3646 22.5367 23.9814 21.3021 24.157 19.9292C24.1707 19.8229 24.1816 19.7162 24.1898 19.6084ZM12.3106 22.7443C12.2628 22.6683 12.2164 22.5913 12.1716 22.5134C11.8299 21.9191 11.5748 21.2684 11.4245 20.5782C11.2646 20.5447 11.099 20.5269 10.9293 20.5269C10.9113 20.5269 10.8939 20.529 10.876 20.5295C10.791 20.5313 10.7072 20.5378 10.6246 20.5482C10.54 20.5589 10.4569 20.5743 10.3751 20.5934C9.65841 20.7627 9.06411 21.2518 8.74654 21.9034C8.7091 21.9804 8.67569 22.0593 8.64619 22.1406C8.61694 22.2213 8.59185 22.3037 8.57093 22.3879C8.5239 22.5781 8.49629 22.7761 8.49629 22.9807C8.49629 23.4523 8.63119 23.892 8.86076 24.2662C8.90577 24.3397 8.95405 24.4105 9.00612 24.4783C9.05731 24.5448 9.11126 24.6089 9.16875 24.6698C9.61227 25.1399 10.2367 25.4346 10.9293 25.4346C11.96 25.4346 12.8409 24.7837 13.1948 23.8689C12.9248 23.5914 12.6784 23.2909 12.4584 22.9703C12.4076 22.896 12.3586 22.8206 12.3106 22.7443ZM31.1792 20.4372C31.1755 20.3482 31.1698 20.2601 31.1617 20.1725C31.1535 20.085 31.1432 19.9983 31.1305 19.9122C30.7918 17.6281 28.873 15.8591 26.5359 15.7743C26.4776 15.7723 26.4194 15.7699 26.3605 15.7699C26.3348 15.7699 26.3093 15.7714 26.2837 15.7719C26.1991 15.7731 26.115 15.7769 26.0313 15.7826C25.3436 15.8295 24.6951 16.0222 24.1158 16.3306C24.4645 17.1058 24.673 17.9578 24.7077 18.8544C24.7112 18.9435 24.7145 19.0327 24.7145 19.1227C24.7145 19.149 24.7128 19.1748 24.7126 19.2009C24.7112 19.3153 24.7072 19.4289 24.7004 19.5419C24.5977 21.2291 23.8814 22.751 22.7733 23.8832C23.6568 24.8749 24.9375 25.5 26.3605 25.5C27.5891 25.5 28.7112 25.0336 29.5638 24.2681C29.6284 24.21 29.6918 24.1508 29.7532 24.0893C29.8151 24.0276 29.8756 23.9642 29.9342 23.8989C30.7104 23.0351 31.184 21.8897 31.184 20.6351C31.184 20.5688 31.1817 20.503 31.1792 20.4372ZM32.067 20.2656C31.9338 20.2656 31.8041 20.2794 31.6769 20.3C31.6837 20.411 31.6882 20.5225 31.6882 20.6351C31.6882 22.0624 31.1327 23.3602 30.2295 24.3236C30.676 24.8431 31.3332 25.1737 32.067 25.1737C33.4085 25.1737 34.5 24.0727 34.5 22.7198C34.5 21.3665 33.4085 20.2656 32.067 20.2656ZM12.0553 12.6874C12.0695 12.7777 12.0872 12.8668 12.1066 12.9552C12.1516 13.1585 12.2096 13.3567 12.2808 13.5486C12.3125 13.6338 12.347 13.7172 12.3837 13.8C12.4195 13.881 12.4576 13.9608 12.4982 14.0393C12.6163 14.2688 12.7532 14.4869 12.9075 14.6912C13.2176 14.3299 13.564 14.001 13.9423 13.7123C14.0135 13.658 14.0864 13.6056 14.1599 13.554C14.2331 13.5026 14.3074 13.453 14.3827 13.4045C15.4029 12.7474 16.6092 12.3601 17.9032 12.3433C17.9324 12.3429 17.9614 12.341 17.9907 12.341C18.0748 12.341 18.1581 12.3445 18.2416 12.3474C18.3565 12.3517 18.471 12.359 18.5845 12.369C19.3611 12.4379 20.0998 12.6406 20.7786 12.954C20.8478 12.6405 20.8854 12.3151 20.8854 11.9809C20.8854 11.7325 20.8643 11.4888 20.8256 11.2512C20.8118 11.1671 20.7955 11.0839 20.7772 11.0013C20.7587 10.9182 20.7379 10.8359 20.7148 10.7548C20.1846 8.87836 18.4708 7.5 16.4425 7.5C14.7691 7.5 13.3093 8.43827 12.5517 9.82032C12.5096 9.89724 12.4693 9.97557 12.4315 10.0553C12.3924 10.1381 12.3563 10.2226 12.322 10.3082C12.1149 10.8255 11.9997 11.3898 11.9997 11.9809C11.9997 12.1307 12.0072 12.2787 12.0215 12.4247C12.0303 12.5131 12.0417 12.6006 12.0553 12.6874ZM23.8918 15.8752C24.5344 15.5346 25.2537 15.3229 26.0163 15.2737C25.8193 12.9852 23.9106 11.1833 21.5914 11.1833C21.5026 11.1833 21.4146 11.1866 21.3273 11.1918C21.3679 11.449 21.3897 11.7124 21.3897 11.9809C21.3897 12.3976 21.3381 12.8021 21.2422 13.1893C22.3571 13.8134 23.279 14.7469 23.8918 15.8752ZM8.32496 21.6131C8.72385 20.8435 9.448 20.2715 10.3126 20.0845C10.3943 20.0667 10.4774 20.053 10.5615 20.0423C10.6445 20.0316 10.7285 20.0243 10.8135 20.0212C10.852 20.0196 10.8905 20.0182 10.9293 20.0182C11.0656 20.0182 11.1995 20.0284 11.331 20.0465C11.2899 19.7442 11.2669 19.4361 11.2669 19.1227C11.2669 17.6165 11.7567 16.2242 12.5832 15.0976C12.396 14.8624 12.229 14.6102 12.0859 14.3428C12.0458 14.2678 12.0076 14.1914 11.9712 14.1139C11.9347 14.0366 11.9005 13.9582 11.8681 13.8787C11.739 13.5635 11.6418 13.232 11.5788 12.8883C11.4666 12.8804 11.3539 12.8749 11.2398 12.8749C10.405 12.8749 9.61908 13.0902 8.9335 13.4681C8.85774 13.5101 8.78348 13.5541 8.71023 13.5999C8.638 13.645 8.56727 13.6922 8.49755 13.7409C7.71541 14.2883 7.10132 15.0624 6.7487 15.9686C6.71769 16.0483 6.68869 16.129 6.66171 16.2107C6.63486 16.2921 6.61015 16.3744 6.58758 16.4575C6.47664 16.8665 6.41625 17.2962 6.41625 17.74C6.41625 19.3189 7.16612 20.7237 8.32496 21.6131ZM8.12577 22.0963C6.78602 21.1194 5.91197 19.5312 5.91197 17.74C5.91197 17.2824 5.96933 16.8377 6.07662 16.4134C6.03211 16.412 5.98786 16.4098 5.94311 16.4098C3.49318 16.4098 1.5 18.4202 1.5 20.8912C1.5 23.362 3.49318 25.3723 5.94311 25.3723C6.87679 25.3723 7.74365 25.0795 8.4596 24.5813C8.16422 24.1195 7.99201 23.57 7.99201 22.9807C7.99201 22.6728 8.03891 22.3758 8.12577 22.0963ZM8.63522 13.0549C8.44334 12.7154 8.33227 12.3236 8.33227 11.9055C8.33227 10.6202 9.36908 9.57453 10.6434 9.57453C11.1148 9.57453 11.5534 9.71834 11.9192 9.96375C11.6476 10.581 11.4954 11.2633 11.4954 11.9809C11.4954 12.1132 11.5019 12.2438 11.512 12.3733C11.4219 12.3687 11.3311 12.3663 11.2398 12.3663C10.2941 12.3663 9.40589 12.6173 8.63522 13.0549Z" fill="white"/>
</svg>

<svg xmlns="http://www.w3.org/2000/svg" width="36" height="36" fill="none" xmlns:v="https://vecta.io/nano"><path fill-rule="evenodd" d="M24.19 19.608l.016-.324.004-.161a6.28 6.28 0 0 0-.53-2.53l-.108-.235-.115-.225c-.55-1.018-1.372-1.865-2.366-2.445l-.224-.124-.228-.115a6.14 6.14 0 0 0-2.505-.595l-.144-.004-.178.005-.319.017a6.14 6.14 0 0 0-2.698.871l-.22.141-.216.151c-.415.302-.791.654-1.121 1.047l-.161.201-.151.205c-.726 1.027-1.156 2.281-1.156 3.635a6.33 6.33 0 0 0 .089 1.049l.056.292.077.313a6.26 6.26 0 0 0 .688 1.607l.141.221.151.216.37.462.219.237.211.207c1.11 1.035 2.592 1.669 4.219 1.669a6.16 6.16 0 0 0 4.095-1.557l.186-.171.183-.183c.91-.947 1.527-2.182 1.703-3.555l.033-.321zm-11.879 3.136l-.139-.231a6.77 6.77 0 0 1-.747-1.935c-.16-.034-.325-.051-.495-.051l-.053.003a2.42 2.42 0 0 0-.251.019c-.085.011-.168.026-.249.045-.717.169-1.311.658-1.629 1.31a2.46 2.46 0 0 0-.1.237 2.48 2.48 0 0 0-.075.247c-.047.19-.075.388-.075.593a2.45 2.45 0 0 0 .364 1.286 2.44 2.44 0 0 0 .145.212l.163.191c.444.47 1.068.765 1.761.765 1.031 0 1.912-.651 2.266-1.566a6.83 6.83 0 0 1-.736-.899l-.148-.226zm18.869-2.307l-.018-.265-.031-.26c-.339-2.284-2.258-4.053-4.595-4.138l-.175-.004-.077.002-.252.011c-.688.047-1.336.24-1.916.548a6.78 6.78 0 0 1 .592 2.524l.007.268-.002.078-.012.341c-.103 1.687-.819 3.209-1.927 4.341.884.992 2.164 1.617 3.587 1.617a4.78 4.78 0 0 0 3.203-1.232l.189-.179.181-.19a4.87 4.87 0 0 0 1.25-3.264l-.005-.198zm.888-.172c-.133 0-.263.014-.39.034l.011.335c0 1.427-.555 2.725-1.459 3.688.446.52 1.104.85 1.837.85 1.341 0 2.433-1.101 2.433-2.454s-1.092-2.454-2.433-2.454zm-20.012-7.578l.051.268a4.5 4.5 0 0 0 .174.593l.103.251.115.239a4.49 4.49 0 0 0 .409.652 6.81 6.81 0 0 1 1.035-.979l.218-.158.223-.149a6.64 6.64 0 0 1 3.52-1.061l.088-.002.251.006.343.022a6.62 6.62 0 0 1 2.194.585 4.51 4.51 0 0 0 .107-.973c0-.248-.021-.492-.06-.73l-.048-.25-.062-.247c-.53-1.876-2.244-3.255-4.272-3.255-1.673 0-3.133.938-3.891 2.32l-.12.235-.11.253A4.49 4.49 0 0 0 12 11.981l.022.444.034.263zm11.837 3.188a5.25 5.25 0 0 1 2.125-.601c-.197-2.288-2.106-4.09-4.425-4.09l-.264.009c.041.257.062.521.062.789a5.02 5.02 0 0 1-.148 1.208 6.8 6.8 0 0 1 2.65 2.686zM8.325 21.613a2.95 2.95 0 0 1 1.988-1.529l.249-.042.252-.021.116-.003a2.94 2.94 0 0 1 .402.028 6.85 6.85 0 0 1-.064-.924c0-1.506.49-2.898 1.316-4.025-.187-.235-.354-.487-.497-.755l-.115-.229-.103-.235a4.98 4.98 0 0 1-.289-.99l-.339-.013c-.835 0-1.621.215-2.306.593l-.223.132-.213.141c-.782.547-1.396 1.322-1.749 2.228l-.087.242-.074.247a4.89 4.89 0 0 0-.171 1.282c0 1.579.75 2.984 1.909 3.873zm-.199.483c-1.34-.977-2.214-2.565-2.214-4.356 0-.458.057-.902.165-1.327l-.134-.004c-2.45 0-4.443 2.01-4.443 4.481s1.993 4.481 4.443 4.481a4.39 4.39 0 0 0 2.516-.791 2.96 2.96 0 0 1-.468-1.601c0-.308.047-.605.134-.884zm.509-9.041a2.33 2.33 0 0 1-.303-1.149c0-1.285 1.037-2.331 2.311-2.331.471 0 .91.144 1.276.389-.272.617-.424 1.3-.424 2.017l.017.392-.272-.007a5.26 5.26 0 0 0-2.605.689z" fill="#fff"/></svg>
